!!!COM:	Bach, Johann Sebastian
!!!CDT:	1685/02/21/-1750/07/28/
!!!OTL@@DE:	Jesu, meine Freude
!!!SCT:	BWV 81/7
!!!PC#:	324
!!!AGN:	chorale
**kern	**kern	**kern	**kern
*ICvox	*ICvox	*ICvox	*ICvox
*Ibass	*Itenor	*Ialto	*Isoprn
*I"Bass	*I"Tenor	*I"Alto	*I"Soprano
*>[A,A,B]	*>[A,A,B]	*>[A,A,B]	*>[A,A,B]
*>norep[A,B]	*>norep[A,B]	*>norep[A,B]	*>norep[A,B]
*>A	*>A	*>A	*>A
*clefF4	*clefGv2	*clefG2	*clefG2
*k[f#]	*k[f#]	*k[f#]	*k[f#]
*e:	*e:	*e:	*e:
*M4/4	*M4/4	*M4/4	*M4/4
*met(c)	*met(c)	*met(c)	*met(c)
*MM100	*MM100	*MM100	*MM100
=1-	=1-	=1-	=1-
4E	4e	4g	4b
4D	4B	4f#	4b
8CL	4c	8eL	4a
8BBJ	.	8d#J	.
8AAL	8cL	4e	4g
8GGJ	8BJ	.	.
=2	=2	=2	=2
4AA	4c	4e	2f#
4BB	8BL	4d#	.
.	8AJ	.	.
2EE;	2G;	2B;	2e;
=3	=3	=3	=3
4E	8eL	8gL	4b
.	8dnXJ	8f#J	.
8AL	8c#L	4e	4cc#
8GJ	8BJ	.	.
4F#	4A	4f#	4dd
8GL	8GL	4d	4b
8F#J	8AJ	.	.
=4	=4	=4	=4
8EL	4B	4g	2ee
8GJ	.	.	.
4c	4e	4a	.
2B;	2f#;	2b;	2dd#;
=5	=5	=5	=5
8GL	4B	4b	4ee
8F#J	.	.	.
4E	4e	4b	4gg
4A	4e	4cc	4ff#
4B	4d#	8bL	4ff#
.	.	8aJ	.
=6	=6	=6	=6
1E;	1B;	1g;	1ee;
=7:|!	=7:|!	=7:|!	=7:|!
*>B	*>B	*>B	*>B
4E	4e	4g	4b
4D#	8BL	4f#	4b
.	8AJ	.	.
8EL	8GL	4e	4cc
8F#J	8AJ	.	.
4G	4B	8dnXL	4b
.	.	8gJ	.
=8	=8	=8	=8
4C#	4e	4g	4a
4DnX	8dL	4f#	4a
.	8cJ	.	.
2GG;	2B;	2d;	2g;
=9	=9	=9	=9
4G	4B	4d	4b
8F#L	4B	4g	4cc#
8EJ	.	.	.
4F#	4A#	4f#	4dd
8EL	4B	4f#	4b
8DJ	.	.	.
=10	=10	=10	=10
4C#	4A#	4g	4ee
8DL	4B	4f#	8ddL
8EJ	.	.	8cc#J
2F#	4B	4.f#	2cc#
.	4A#	.	.
.	.	8e	.
=11	=11	=11	=11
2BB;	2F#;	2d#;	2b;
8EL	8GL	4e	4b
8F#J	8AnXJ	.	.
8GL	4B	8eL	4b
8EJ	.	8dJ	.
=12	=12	=12	=12
8CL	4c	8eL	4a
8DJ	.	8f#J	.
8EL	4B	8gL	4g
8CJ	.	8eJ	.
4AA#	4c#	4e	2f#
4BB	8BL	4d#	.
.	8AJ	.	.
=13	=13	=13	=13
1EE;	1G#;	1B;	1e;
==	==	==	==
*-	*-	*-	*-
!!!hum2abc: -Q ''
!!!title: @{PC#}. @{OTL@@DE}
!!!YOR1: 371 vierstimmige Choralges&auml;nge von Johann Sebastian Bach, 
!!!YOR2: 4th ed. by Alfred D&ouml;rffel (Leipzig: Breitkopf und H&auml;rtel, 
!!!YOR2: c.1875). 178 pp. Plate "V.A.10".  reprint: J.S. Bach, 371 Four-Part 
!!!YOR4: Chorales (New York: Associated Music Publishers, Inc., c.1940).
!!!SMS: B&H, 4th ed, Alfred D&ouml;rffel, c.1875, plate V.A.10
!!!EED:  Craig Stuart Sapp
!!!EEV:  2009/05/22
